src/images/trading_app/purchase/trade_types/ic_does_not_touch_light.svg

<?xml version="1.0" encoding="UTF-8"?>
<svg width="16px" height="16px" viewBox="0 0 16 16" version="1.1" xmlns="http://www.w3.org/2000/svg" xmlns:xlink="http://www.w3.org/1999/xlink">
    <!-- Generator: Sketch 50.2 (55047) - http://www.bohemiancoding.com/sketch -->
    <title>icons/trade types/light/touch-no touch/ic-light-no-touch</title>
    <desc>Created with Sketch.</desc>
    <defs></defs>
    <g id="icons/trade-types/light/touch-no-touch/ic-light-no-touch" stroke="none" stroke-width="1" fill="none" fill-rule="evenodd">
        <g id="binary/icons/No-Touch/No-Touch-off" fill="#2A3052" fill-rule="nonzero">
            <path d="M9.83878285,9.87009367 C10.034045,10.0653558 10.3506275,10.0653558 10.5458896,9.87009367 L12.5649054,7.85107789 C12.7601676,7.65581574 12.7601676,7.33923325 12.5649054,7.14397111 C12.3696433,6.94870896 12.0530608,6.94870896 11.8577986,7.14397111 L10.1923362,8.8094335 L6.39849589,5.01559314 C6.20323375,4.820331 5.88665126,4.820331 5.69138911,5.01559314 L5.23747007,5.46951219 L4.41440448,4.64644661 C4.21914234,4.45118446 3.90255985,4.45118446 3.7072977,4.64644661 C3.51203556,4.84170876 3.51203556,5.15829124 3.7072977,5.35355339 L4.88391667,6.53017236 C5.07917882,6.72543451 5.39576131,6.72543451 5.59102346,6.53017236 L6.0449425,6.07625332 L9.83878285,9.87009367 Z" id="Path"></path>
            <path d="M11.2945498,8.34454517 C11.0992876,8.53980732 11.0992876,8.85638981 11.2945498,9.05165196 C11.4898119,9.2469141 11.8063944,9.2469141 12.0016565,9.05165196 L13.5016565,7.55165196 C13.6969187,7.35638981 13.6969187,7.03980732 13.5016565,6.84454517 L12.0016565,5.34454517 C11.8063944,5.14928303 11.4898119,5.14928303 11.2945498,5.34454517 C11.0992876,5.53980732 11.0992876,5.85638981 11.2945498,6.05165196 L12.4409964,7.19809856 L11.2945498,8.34454517 Z" id="Path-3" transform="translate(12.398103, 7.198099) rotate(-45.000000) translate(-12.398103, -7.198099) "></path>
            <path d="M3,11.7 L13.5,11.7 C13.7761424,11.7 14,11.4761424 14,11.2 C14,10.9238576 13.7761424,10.7 13.5,10.7 L3,10.7 C2.72385763,10.7 2.5,10.9238576 2.5,11.2 C2.5,11.4761424 2.72385763,11.7 3,11.7 Z" id="Line-14"></path>
        </g>
    </g>
</svg>

<svg width="16" height="16" viewBox="0 0 16 16" xmlns="http://www.w3.org/2000/svg"><title>icons/trade types/light/touch-no touch/ic-light-no-touch</title><g fill="#2A3052" fill-rule="nonzero"><path d="M9.839 9.87a.5.5 0 0 0 .707 0l2.019-2.019a.5.5 0 1 0-.707-.707l-1.666 1.665-3.794-3.793a.5.5 0 0 0-.707 0l-.454.454-.823-.824a.5.5 0 1 0-.707.708L4.884 6.53a.5.5 0 0 0 .707 0l.454-.454L9.839 9.87z"/><path d="M12.428 8.79a.5.5 0 1 0 1 0V6.667a.5.5 0 0 0-.5-.5h-2.12a.5.5 0 1 0 0 1h1.62v1.621zM3 11.7h10.5a.5.5 0 1 0 0-1H3a.5.5 0 1 0 0 1z"/></g></svg>
